X: 1
T:The Siege of Delhi  "CYMRU"
M:C|
L:1/8
Q:80
C:
S:March
K:HP
|: {g}A3/4B/4|
{GdG}c2{GdG}ce|
{g}e3/4A/4{g}f3/4A/4{gef}e{g}A3/4B/4|  !
{GdG}c2{GdG}ce|
{g}f/4a3/4{ef}e3/4c/4{gBd}B{g}A3/4B/4| |
{GdG}c2{GdG}ce|  !
{g}e3/4A/4{g}f3/4A/4{gef}e{g}A3/4B/4|
{GdG}ca3/4e/4{g}f3/4d/4{gef}e3/4d/4|
{gcd}c{e}A{GAG}A:| |:  !
{g}A3/4B/4|
{GdG}c2{GdG}ce|
{Gdc}d2{g}df|  !
{gcd}c2{GdG}ce|
{g}f/4a3/2{ef}e3/4c/4{gBd}B{g}A3/4B/4| |
{GdG}c2{GdG}ce|  !
{Gdc}d2{g}df|
{gcd}ca3/4e/4{g}f3/4d/4{gef}e3/4d/4|
{gcd}c{e}A{GAG}A:| |:  !
{gf}g2|
a{GdG}a3/4f/4{g}e{GdG}e3/4c/4|
{g}A{GdGe}A3/4{d}c/4{gef}e{g}A3/4B/4|  !
{GdG}c2{GdG}ce|
{g}f/4a3/4{ef}e3/4c/4{gBd}B{gf}g| |
a{GdG}a3/4f/4{g}e{GdG}e3/4c/4|  !
{g}A{GdGe}A3/4{d}c/4{gef}e{g}A3/4B/4|
{GdG}ca3/4e/4{g}f3/4d/4{gef}e3/4d/4|
{gcd}c{e}A{GAG}A:|  !
{g}A3/4B/4|
{GdG}c2{GdG}ce|
{gfg}f3/4d/4a3/4d/4{gfg}f3/4d/4a3/4d/4|  !
{gcd}c2{GdG}ce|
{g}f/4a3/4{ef}e3/4c/4{gBd}B{g}A3/4B/4| |
{GdG}c2{GdG}ce|  !
{gfg}f3/4d/4a3/4d/4{gfg}f3/4d/4a3/4d/4|
{gcd}ca3/4e/4{g}f3/4d/4{gef}e3/4d/4|
{gcd}c{e}A{GAG}A:|  !
